X:1
T:Title
%%score { 1 | ( 2 3 ) }
L:1/8
M:4/4
K:D
V:1 treble nm="Grand Piano"
V:2 bass 
V:3 bass 
V:1
 z4 z2[Q:1/4=100] DE | F2 F[EG] [FA]2 [FA][FA] | [GB]d[DAc][DGB] [DFA]4 | %3
 [FA]2 [EG][^DF] [A,EG]2 [A,CA]2 |[M:3/4] [A,DF]6 |[M:1/4] [A,DF][A,EG] | %6
[M:4/4] [DFA]2 [DFA][DGB] [DFA]2 [A,DF][A,EG] | .[A,FA]2 [Ac][GB] [FA]4 | %8
 [FA]2 [EG][^DF] [A,EG]2[K:bass] [G,CE]2 | [F,D]6 z2 | [A,CE]2 [CEA]>[DEB] [CEA]2 [A,CE]2 | %11
 [A,DF]2 [FA]>[GB] [FA]2 F2 | E2 AA c2 B2 |[M:5/4] [CA]4 [EG]6 |[M:4/4] [DF]2 [FA]>[GB] [FA]2 F2 | %15
 B2 d>e d2 B2 | A2 GF [EG]2 [CE]2 |[M:3/4] D6 |] %18
V:2
 z4 z2 [D,F,][D,G,D] | [D,A,D]2 [D,A,D][D,A,] [D,D]2 [D,D][D,D] | [G,D]2[K:bass] z2 z4 | %3
 A,2 A,A, A,,2 A,,2 |[M:3/4] D,6 |[M:1/4] D,D, |[M:4/4] D,2 D,D, D,2 D,D, | %7
 z[K:treble] d[K:bass][D,A,][D,D] [D,D]4 | A,2 A,A, A,,2 A,,2 | D,6 z2 | A,,2 A,,>A,, A,,2 A,,2 | %11
 D,2 [D,D]>[D,D] [D,D]2 [D,A,D]2 | [E,A,C]2 [E,A,C][E,A,C] [E,A,E]2 [E,^G,D]2 | %13
[M:5/4] [A,,A,]2- [A,,A,]2- [A,,A,]6 |[M:4/4] [D,A,]2 [D,D]>[D,D] [D,D]2 [D,A,D]2 | %15
 [G,D]2 [G,B,G]>[G,B,G] [G,B,G]2 [G,DG]2 | [A,F]2[K:bass] [A,E][A,D] [A,,A,]2 [A,,G,]2 | %17
[M:3/4] [D,F,]6 |] %18
V:3
 x8 | x8 | z B[K:bass]G,G, D,4 | x8 |[M:3/4] x6 |[M:1/4] x2 |[M:4/4] x8 | %7
 D,2[K:treble][K:bass] z2 z4 | x8 | x8 | x8 | x8 | x8 |[M:5/4] x10 |[M:4/4] x8 | x8 | %16
 x2[K:bass] x6 |[M:3/4] x6 |] %18

